X:473
T:Reel 473
M:4/4
K:Dmaj
L:1/8
FE|D2FD EGFE|DEFD EB,B,C|D2FD EFGB|AFGE D2:|EG|FAdA BAdA|FAdA BEEG|FAdA BAdA|FGEF D2DE|FAdA BAGA|dAdA B2AG|FAdA Bdce|dBAF G2|
